;FLAVOR:RepRap
;TIME:7164
;Generated with Cura_SteamEngine 2.3.1
M190 S60
M104 S230
M109 S230
G21 ;metric values
G90 ;absolute positioning
M82 ;set extruder to absolute mode
M107 ;start with the fan off
G28 X0 Y0 ;move X/Y to min endstops
G28 Z0 ;move Z to min endstops
G1 Z15.0 F9000 ;move the platform down 15mm
G92 E0 ;zero the extruded length
G1 F200 E3 ;extrude 3mm of feed stock
G92 E0 ;zero the extruded length again
G1 F9000
;Put printing message on LCD screen
M117 Printing...
;LAYER_COUNT:106
;LAYER:0
M107
G1 F1500 E-6.5
G0 F3600 X17.083 Y13.736 Z.3
;TYPE:SKIRT
G1 F1500 E0
G1 F1800 X17.467 Y13.407 E0.03027
G1 X17.898 Y13.143 E0.06053
G1 X18.366 Y12.95 E0.09084
G1 X18.857 Y12.833 E0.12106
G1 X19.362 Y12.795 E0.15138
G1 X19.865 Y12.837 E0.1816
G1 X20.356 Y12.957 E0.21186
G1 X20.686 Y13.087 E0.23309
G1 X23.186 Y14.235 E0.39779
G1 X28.278 Y16.319 E0.72718
G1 X33.456 Y18.102 E1.05504
G1 X38.758 Y19.599 E1.38487
G1 X41.4 Y20.227 E1.54745
G1 X44.045 Y20.774 E1.70915
G1 X49.475 Y21.662 E2.03856
G1 X54.915 Y22.238 E2.36606
G1 X60.38 Y22.506 E2.69363
G1 X65.868 Y22.465 E3.0222
G1 X71.309 Y22.115 E3.34862
G1 X76.759 Y21.453 E3.6773
G1 X90.309 Y18.999 E4.50171
G1 X90.491 Y18.972 E4.51272
G1 X91.906 Y18.799 E4.59807
G1 X92.085 Y18.782 E4.60883
G1 X100.407 Y18.237 E5.10812
G1 X100.762 Y18.233 E5.12938
G1 X109.116 Y18.614 E5.63004
G1 X109.305 Y18.629 E5.64139
G1 X110.778 Y18.784 E5.73006
G1 X110.958 Y18.808 E5.74093
G1 X119.169 Y20.147 E6.239
G1 X119.52 Y20.224 E6.26052
G1 X128.269 Y22.683 E6.8046
G1 X128.613 Y22.802 E6.82639
G1 X137.032 Y26.242 E7.37087
G1 X137.36 Y26.398 E7.39262
G1 X145.33 Y30.767 E7.93676
G1 X145.635 Y30.957 E7.95827
G1 X152.475 Y35.777 E8.45923
G1 X152.626 Y35.891 E8.47055
G1 X153.744 Y36.782 E8.55614
G1 X153.884 Y36.899 E8.56707
G1 X160.099 Y42.459 E9.06631
G1 X160.35 Y42.71 E9.08756
G1 X165.912 Y48.926 E9.58693
G1 X166.029 Y49.065 E9.59781
G1 X166.949 Y50.219 E9.68616
G1 X167.063 Y50.371 E9.69754
G1 X171.872 Y57.196 E10.19738
G1 X172.062 Y57.5 E10.21885
G1 X176.429 Y65.464 E10.76261
G1 X176.585 Y65.792 E10.78436
G1 X180.021 Y74.199 E11.32809
G1 X180.139 Y74.543 E11.34986
G1 X182.597 Y83.28 E11.89323
G1 X182.675 Y83.631 E11.91476
G1 X184.025 Y91.893 E12.41595
G1 X184.05 Y92.076 E12.42701
G1 X184.201 Y93.519 E12.51387
G1 X184.215 Y93.706 E12.5251
G1 X184.597 Y102.045 E13.02486
G1 X184.593 Y102.4 E13.04612
G1 X184.047 Y110.745 E13.54678
G1 X184.03 Y110.931 E13.55797
G1 X183.85 Y112.379 E13.64532
G1 X183.821 Y112.561 E13.65636
G1 X182.313 Y120.78 E14.15663
G1 X182.296 Y120.866 E14.16187
G1 X181.708 Y123.641 E14.3317
G1 X180.797 Y129.073 E14.66144
G1 X180.198 Y134.53 E14.99011
G1 X179.908 Y139.977 E15.31667
G1 X179.929 Y145.465 E15.64523
G1 X180.257 Y150.925 E15.9727
G1 X180.895 Y156.36 E16.30032
G1 X181.843 Y161.774 E16.62938
G1 X182.423 Y164.421 E16.79161
G1 X183.078 Y167.054 E16.95404
G1 X184.635 Y172.34 E17.28395
G1 X186.489 Y177.53 E17.6139
G1 X187.181 Y179.26 E17.72545
G1 X187.331 Y179.743 E17.75573
G1 X187.403 Y180.243 E17.78597
G1 X187.396 Y180.749 E17.81627
G1 X187.309 Y181.247 E17.84653
G1 X187.145 Y181.725 E17.87679
G1 X186.907 Y182.171 E17.90705
G1 X186.473 Y182.711 E17.94853
G1 X182.721 Y186.465 E18.26628
G1 X182.337 Y186.793 E18.29652
G1 X181.905 Y187.057 E18.32683
G1 X181.438 Y187.249 E18.35705
G1 X180.946 Y187.366 E18.38733
G1 X180.442 Y187.403 E18.41759
G1 X179.938 Y187.36 E18.44787
G1 X179.333 Y187.199 E18.48535
G1 X173.973 Y185.185 E18.82815
G1 X171.398 Y184.335 E18.99049
G1 X166.093 Y182.832 E19.32059
G1 X163.416 Y182.194 E19.48535
G1 X160.803 Y181.651 E19.64513
G1 X155.362 Y180.757 E19.97524
G1 X149.92 Y180.175 E20.3029
G1 X144.455 Y179.903 E20.63048
G1 X138.986 Y179.939 E20.95791
G1 X133.507 Y180.287 E21.28659
G1 X128.072 Y180.942 E21.61433
G1 X122.678 Y181.903 E21.94234
G1 X120.909 Y182.288 E22.05073
G1 X120.806 Y182.308 E22.05701
G1 X112.53 Y183.827 E22.56076
G1 X112.342 Y183.856 E22.57214
G1 X110.933 Y184.029 E22.65713
G1 X110.752 Y184.046 E22.66802
G1 X102.421 Y184.592 E23.16785
G1 X102.066 Y184.596 E23.1891
G1 X93.713 Y184.215 E23.6897
G1 X93.526 Y184.201 E23.70093
G1 X92.055 Y184.047 E23.78948
G1 X91.873 Y184.022 E23.80047
G1 X83.655 Y182.681 E24.29898
G1 X83.304 Y182.604 E24.32049
G1 X74.558 Y180.145 E24.8644
G1 X74.214 Y180.026 E24.88619
G1 X65.803 Y176.589 E25.43017
G1 X65.475 Y176.433 E25.45191
G1 X57.524 Y172.076 E25.99471
G1 X57.216 Y171.884 E26.01644
G1 X49.783 Y166.635 E26.56121
G1 X49.499 Y166.409 E26.58294
G1 X42.726 Y160.366 E27.12636
G1 X42.471 Y160.112 E27.14791
G1 X36.887 Y153.87 E27.64931
G1 X36.764 Y153.724 E27.66074
G1 X35.855 Y152.577 E27.74836
G1 X35.747 Y152.432 E27.75919
G1 X30.947 Y145.619 E28.25813
G1 X30.757 Y145.314 E28.27965
G1 X26.392 Y137.348 E28.82346
G1 X26.237 Y137.024 E28.84496
G1 X23.058 Y129.268 E29.34679
G1 X22.991 Y129.088 E29.35829
G1 X22.527 Y127.729 E29.44426
G1 X22.473 Y127.558 E29.455
G1 X20.226 Y119.53 E29.95409
G1 X20.15 Y119.182 E29.97542
G1 X18.802 Y110.923 E30.47641
G1 X18.777 Y110.738 E30.48759
G1 X18.627 Y109.29 E30.57474
G1 X18.613 Y109.106 E30.58579
G1 X18.232 Y100.783 E31.08459
G1 X18.236 Y100.428 E31.10585
G1 X18.782 Y92.083 E31.60652
G1 X18.799 Y91.899 E31.61758
G1 X18.977 Y90.461 E31.70433
G1 X19.006 Y90.273 E31.71572
G1 X20.693 Y81.142 E32.27163
G1 X21.604 Y75.707 E32.60155
G1 X22.203 Y70.25 E32.93021
G1 X22.493 Y64.804 E33.25672
G1 X22.472 Y59.316 E33.58528
G1 X22.144 Y53.856 E33.91275
G1 X21.506 Y48.419 E34.24048
G1 X20.559 Y43.012 E34.56912
G1 X19.981 Y40.377 E34.73062
G1 X19.319 Y37.71 E34.89513
G1 X17.764 Y32.431 E35.22461
G1 X15.931 Y27.3 E35.5508
G1 X13.053 Y20.634 E35.98549
G1 X12.89 Y20.156 E36.01573
G1 X12.804 Y19.658 E36.04598
G1 X12.798 Y19.152 E36.07628
G1 X12.872 Y18.652 E36.10654
G1 X13.023 Y18.169 E36.13683
G1 X13.249 Y17.717 E36.16709
G1 X13.543 Y17.306 E36.19734
G1 X13.724 Y17.107 E36.21345
G1 X17.083 Y13.736 E36.49835
G0 F3600 X19.438 Y16.26
;TYPE:SUPPORT
G1 F1800 X22.01 Y18.833 E36.71615
G1 X22.406 Y18.901 E36.74021
G1 X29.204 Y25.703 E37.31594
G1 X29.482 Y25.703 E37.33258
G1 X25.663 Y29.522 E37.65592
G1 X25.664 Y29.166 E37.67724
G1 X19.223 Y22.736 E38.22211
G1 X18.93 Y22.444 E38.24687
G1 X18.867 Y22.04 E38.27135
G1 X16.261 Y19.437 E38.49187
G1 X16.229 Y19.385 E38.49552
G1 X19.384 Y16.23 E38.76265
G1 X19.438 Y16.26 E38.76634
G1 F1500 E32.26634
G0 F3600 X18.662 Y17.179
G1 F1500 E38.76634
G1 F1800 X18.662 Y21.608 E39.0315
G0 F3600 X18.381 Y21.328
G1 F1800 X24.604 Y21.328 E39.40406
G1 F1500 E32.90406
G0 F3600 X23.994 Y20.718
G1 F1500 E39.40406
G1 F1800 X23.994 Y27.272 E39.79644
G1 F1500 E33.29644
G0 F3600 X23.38 Y26.66
G1 F1500 E39.79644
G1 F1800 X28.298 Y26.66 E40.09087
G1 F1500 E33.59087
G0 F3600 X26.66 Y28.298
G1 F1500 E40.09087
G1 F1800 X26.66 Y23.384 E40.38506
G1 F1500 E33.88506
G0 F3600 X27.27 Y23.994
G1 F1500 E40.38506
G1 F1800 X20.71 Y23.994 E40.7778
G1 F1500 E34.2778
G0 F3600 X21.328 Y24.61
G1 F1500 E40.7778
G1 F1800 X21.328 Y18.378 E41.1509
G0 F3600 X21.613 Y18.662
G1 F1800 X17.179 Y18.662 E41.41635
G1 F1500 E34.91635
G0 F3600 X21.184 Y109.774
G0 X22.644 Y118.798
G0 X25.129 Y127.628
G0 X28.591 Y136.109
G0 X32.993 Y144.139
G0 X38.275 Y151.618
G0 X44.374 Y158.454
G0 X51.211 Y164.553
G0 X58.689 Y169.835
G0 X66.72 Y174.237
G0 X75.2 Y177.699
G0 X84.027 Y180.183
G0 X93.055 Y181.645
G0 X102.207 Y182.075
G0 X169.65 Y181.181
G0 X173.504 Y177.343
G0 X173.317 Y177.156
G1 F1500 E41.41635
G1 F1800 X177.158 Y173.315 E41.74156
G1 X177.157 Y173.648 E41.76149
G1 X183.718 Y180.205 E42.31682
G1 X183.717 Y180.205 E42.31688
G1 X183.946 Y180.452 E42.33704
G1 X182.714 Y181.682 E42.44127
G1 X180.85 Y183.542 E42.59892
G1 X180.446 Y183.945 E42.63308
G1 X180.27 Y183.78 E42.64752
G1 X180.27 Y183.781 E42.64758
G1 X173.649 Y177.156 E43.20833
G1 X173.317 Y177.156 E43.22821
G1 F1500 E36.72821
G0 F3600 X174.745 Y175.956
G1 F1500 E43.22821
G1 F1800 X179.241 Y175.956 E43.49737
G1 F1500 E36.99737
G0 F3600 X178.622 Y175.338
G1 F1500 E43.49737
G1 F1800 X178.622 Y181.905 E43.89053
G1 F1500 E37.39053
G0 F3600 X178.004 Y181.288
G1 F1500 E43.89053
G1 F1800 X182.881 Y181.288 E44.18251
G1 F1500 E37.68251
G0 F3600 X181.288 Y182.879
G1 F1500 E44.18251
G1 F1800 X181.288 Y178.003 E44.47442
G1 F1500 E37.97442
G0 F3600 X181.908 Y178.622
G1 F1500 E44.47442
G1 F1800 X175.338 Y178.622 E44.86776
G1 F1500 E38.36776
G0 F3600 X175.956 Y179.239
G1 F1500 E44.86776
G1 F1800 X175.956 Y174.744 E45.13687
G1 F1500 E38.63687
G0 F3600 X175.107 Y173.895
G0 X179.198 Y169.72
G0 X179.267 Y169.791
;TYPE:WALL-INNER
G1 F1500 E45.13687
G1 F1800 X169.791 Y179.267 E45.93917
G1 X169.65 Y179.408 E45.9511
G1 X169.509 Y179.267 E45.95881
G1 X152.49 Y162.247 E47.39979
G1 X144.786 Y167.921 E47.97261
G1 X136.971 Y172.406 E48.51205
G1 X128.687 Y175.982 E49.05224
G1 X120.071 Y178.59 E49.59118
G1 X111.188 Y180.209 E50.13175
G1 X102.2 Y180.808 E50.67104
G1 X93.184 Y180.385 E51.2114
G1 X84.297 Y178.945 E51.75039
G1 X75.608 Y176.502 E52.29075
G1 X67.268 Y173.095 E52.83011
G1 X59.362 Y168.762 E53.36986
G1 X51.993 Y163.556 E53.91001
G1 X45.27 Y157.558 E54.44941
G1 X39.272 Y150.836 E54.98876
G1 X34.066 Y143.466 E55.52897
G1 X29.733 Y135.561 E56.06866
G1 X26.326 Y127.22 E56.60807
G1 X23.882 Y118.528 E57.14862
G1 X22.444 Y109.645 E57.68736
G1 X22.021 Y100.628 E58.22778
G1 X22.62 Y91.64 E58.76707
G1 X24.238 Y82.758 E59.30757
G1 X26.847 Y74.141 E59.84658
G1 X30.423 Y65.857 E60.38677
G1 X34.908 Y58.042 E60.92621
G1 X40.581 Y50.339 E61.49895
G1 X23.561 Y33.32 E62.93993
G1 X23.42 Y33.179 E62.95187
G1 X23.561 Y33.038 E62.95957
G1 X33.038 Y23.561 E63.76196
G1 X33.179 Y23.42 E63.7739
G1 X33.32 Y23.561 E63.7816
G1 X50.339 Y40.581 E65.22259
G1 X58.042 Y34.908 E65.79532
G1 X65.857 Y30.423 E66.33476
G1 X74.141 Y26.847 E66.87495
G1 X82.758 Y24.238 E67.41396
G1 X91.64 Y22.62 E67.95446
G1 X100.628 Y22.021 E68.49375
G1 X109.645 Y22.444 E69.03418
G1 X118.532 Y23.883 E69.57315
G1 X127.22 Y26.326 E70.11346
G1 X135.56 Y29.733 E70.65282
G1 X143.466 Y34.066 E71.19256
G1 X150.836 Y39.272 E71.73277
G1 X157.558 Y45.27 E72.27212
G1 X163.556 Y51.993 E72.81151
G1 X168.762 Y59.362 E73.35167
G1 X173.095 Y67.268 E73.89142
G1 X176.502 Y75.608 E74.43077
G1 X178.946 Y84.301 E74.97139
G1 X180.385 Y93.184 E75.51013
G1 X180.808 Y102.199 E76.05043
G1 X180.209 Y111.188 E76.58978
G1 X178.59 Y120.071 E77.13035
G1 X175.982 Y128.687 E77.66929
G1 X172.406 Y136.971 E78.20948
G1 X167.921 Y144.786 E78.74892
G1 X162.247 Y152.49 E79.32174
G1 X179.267 Y169.509 E80.76272
G1 X179.408 Y169.65 E80.77466
G1 X179.267 Y169.791 E80.78236
G0 F3600 X179.198 Y169.72
G0 X159.563 Y149.898
G0 X159.556 Y149.799
G1 F1800 X159.693 Y149.61 E80.79634
G1 X165.021 Y142.276 E81.33905
G1 X169.263 Y134.761 E81.85569
G1 X172.621 Y126.812 E82.3723
G1 X175.051 Y118.532 E82.88892
G1 X176.522 Y110.029 E83.40554
G1 X177.015 Y101.414 E83.92215
G1 X176.522 Y92.799 E84.43875
G1 X175.051 Y84.297 E84.95532
G1 X172.621 Y76.016 E85.47199
G1 X169.263 Y68.067 E85.9886
G1 X165.021 Y60.553 E86.50519
G1 X159.693 Y53.219 E87.0479
G1 X159.556 Y53.03 E87.06187
G1 X159.391 Y53.195 E87.07052
G1 X115.252 Y97.334 E90.80762
G1 X115.689 Y99.53 E90.94166
G1 X115.812 Y101.414 E91.0547
G1 X115.689 Y103.299 E91.16779
G1 X115.252 Y105.494 E91.30178
G1 X159.391 Y149.634 E95.03891
G1 X159.556 Y149.799 E95.04756
G0 F3600 X159.563 Y149.898
G0 X149.899 Y159.564
G0 X149.8 Y159.557
G1 F1800 X149.635 Y159.392 E95.06153
G1 X105.497 Y115.256 E98.79846
G1 X102.863 Y115.739 E98.95878
G1 X100.543 Y115.785 E99.0977
G1 X98.252 Y115.46 E99.23623
G1 X96.04 Y114.771 E99.37494
G1 X93.967 Y113.735 E99.51368
G1 X92.083 Y112.378 E99.65268
G1 X90.45 Y110.745 E99.79094
G1 X89.093 Y108.862 E99.9299
G1 X88.057 Y106.788 E100.06869
G1 X87.368 Y104.576 E100.2074
G1 X87.043 Y102.284 E100.34599
G1 X87.09 Y99.966 E100.48479
G1 X87.573 Y97.331 E100.64517
G1 X43.436 Y53.194 E104.3821
G1 X43.271 Y53.029 E104.39607
G1 X43.134 Y53.218 E104.40472
G1 X37.667 Y60.772 E104.96298
G1 X33.338 Y68.536 E105.49516
G1 X29.949 Y76.754 E106.02736
G1 X27.549 Y85.313 E106.55953
G1 X26.169 Y94.095 E107.09175
G1 X25.83 Y102.976 E107.62382
G1 X26.536 Y111.838 E108.15606
G1 X28.276 Y120.555 E108.68822
G1 X31.029 Y129.007 E109.2204
G1 X34.755 Y137.079 E109.75265
G1 X39.402 Y144.657 E110.28484
G1 X44.906 Y151.636 E110.81696
G1 X51.192 Y157.922 E111.34918
G1 X58.172 Y163.427 E111.88138
G1 X65.75 Y168.074 E112.41357
G1 X73.821 Y171.8 E112.94578
G1 X82.274 Y174.552 E113.47799
G1 X90.991 Y176.292 E114.01015
G1 X99.852 Y176.999 E114.54233
G1 X108.734 Y176.659 E115.07447
G1 X117.516 Y175.281 E115.60667
G1 X126.075 Y172.879 E116.13887
G1 X134.292 Y169.491 E116.67099
G1 X142.056 Y165.161 E117.2032
G1 X149.611 Y159.694 E117.76151
G1 X149.8 Y159.557 E117.77016
G0 F3600 X149.899 Y159.564
G0 X102.865 Y111.135
G0 X102.801 Y111.059
G1 F1800 X103.059 Y110.801 E117.79201
G1 X103.27 Y110.504 E117.81382
G1 X103.428 Y110.174 E117.83572
G1 X103.527 Y109.822 E117.85761
G1 X103.565 Y109.46 E117.8794
G1 X103.543 Y109.096 E117.90124
G1 X103.458 Y108.739 E117.92321
G1 X103.314 Y108.404 E117.94504
G1 X103.117 Y108.098 E117.96682
G1 X102.87 Y107.829 E117.98869
G1 X102.581 Y107.605 E118.01058
G1 X102.258 Y107.433 E118.03249
G1 X101.91 Y107.32 E118.05439
G1 X101.552 Y107.266 E118.07607
G1 X101.187 Y107.273 E118.09792
G1 X100.826 Y107.343 E118.11994
G1 X100.485 Y107.472 E118.14176
G1 X100.171 Y107.657 E118.16358
G1 X99.892 Y107.892 E118.18542
G1 X99.656 Y108.171 E118.2073
G1 X99.471 Y108.487 E118.22922
G1 X99.344 Y108.828 E118.25101
G1 X99.274 Y109.187 E118.2729
G1 X99.267 Y109.552 E118.29476
G1 X99.321 Y109.91 E118.31644
G1 X99.434 Y110.256 E118.33823
G1 X99.604 Y110.58 E118.36013
G1 X99.829 Y110.87 E118.38211
G1 X100.098 Y111.117 E118.40397
G1 X100.404 Y111.314 E118.42576
G1 X100.739 Y111.458 E118.44759
G1 X101.096 Y111.543 E118.46956
G1 X101.46 Y111.565 E118.49139
G1 X101.822 Y111.527 E118.51318
G1 X102.174 Y111.428 E118.53507
G1 X102.504 Y111.27 E118.55698
G1 X102.801 Y111.059 E118.57879
G0 F3600 X102.865 Y111.135
G0 X109.537 Y103.196
G0 X109.598 Y103.117
G1 F1800 X109.904 Y103.314 E118.60058
G1 X110.239 Y103.458 E118.62241
G1 X110.596 Y103.543 E118.64438
G1 X110.96 Y103.565 E118.66621
G1 X111.322 Y103.527 E118.688
G1 X111.674 Y103.428 E118.70989
G1 X112.004 Y103.27 E118.7318
G1 X112.301 Y103.059 E118.75361
G1 X112.559 Y102.801 E118.77545
G1 X112.77 Y102.502 E118.79736
G1 X112.926 Y102.175 E118.81905
G1 X113.027 Y101.822 E118.84103
G1 X113.065 Y101.46 E118.86282
G1 X113.043 Y101.096 E118.88466
G1 X112.958 Y100.739 E118.90663
G1 X112.814 Y100.404 E118.92846
G1 X112.617 Y100.098 E118.95024
G1 X112.37 Y99.829 E118.97211
G1 X112.08 Y99.604 E118.99408
G1 X111.756 Y99.434 E119.01599
G1 X111.41 Y99.321 E119.03778
G1 X111.052 Y99.267 E119.05945
G1 X110.687 Y99.274 E119.08131
G1 X110.328 Y99.344 E119.10321
G1 X109.987 Y99.471 E119.12499
G1 X109.671 Y99.656 E119.14691
G1 X109.392 Y99.892 E119.16879
G1 X109.157 Y100.171 E119.19063
G1 X108.972 Y100.485 E119.21245
G1 X108.843 Y100.826 E119.23428
G1 X108.773 Y101.187 E119.25629
G1 X108.766 Y101.552 E119.27815
G1 X108.82 Y101.91 E119.29982
G1 X108.933 Y102.258 E119.32173
G1 X109.105 Y102.581 E119.34364
G1 X109.329 Y102.87 E119.36553
G1 X109.598 Y103.117 E119.38739
G0 F3600 X109.537 Y103.196
G0 X102.865 Y95.136
G0 X102.801 Y95.06
G1 F1800 X103.059 Y94.802 E119.40923
G1 X103.27 Y94.505 E119.43105
G1 X103.428 Y94.175 E119.45295
G1 X103.527 Y93.823 E119.47484
G1 X103.565 Y93.461 E119.49663
G1 X103.543 Y93.097 E119.51846
G1 X103.458 Y92.74 E119.54043
G1 X103.314 Y92.405 E119.56226
G1 X103.117 Y92.099 E119.58405
G1 X102.87 Y91.83 E119.60592
G1 X102.581 Y91.606 E119.62781
