;FLAVOR:RepRap
;TIME:8380
;Generated with Cura_SteamEngine 2.3.1
M190 S60
M104 S235
M109 S235
G21 ;metric values
G90 ;absolute positioning
M82 ;set extruder to absolute mode
M107 ;start with the fan off
G28 X0 Y0 ;move X/Y to min endstops
G28 Z0 ;move Z to min endstops
G1 Z15.0 F9000 ;move the platform down 15mm
G92 E0 ;zero the extruded length
G1 F200 E3 ;extrude 3mm of feed stock
G92 E0 ;zero the extruded length again
G1 F9000
;Put printing message on LCD screen
M117 Printing...
;LAYER_COUNT:106
;LAYER:0
M107
G1 F1500 E-6.5
G0 F3927.3 X17.289 Y13.535 Z.3
;TYPE:SKIRT
G1 F1500 E0
G1 F1800 X17.673 Y13.206 E0.03532
G1 X18.104 Y12.941 E0.07066
G1 X18.571 Y12.748 E0.10595
G1 X19.062 Y12.63 E0.14122
G1 X19.567 Y12.592 E0.17659
G1 X20.07 Y12.633 E0.21184
G1 X20.686 Y12.798 E0.25639
G1 X26.184 Y14.871 E0.66679
G1 X31.426 Y16.507 E1.05034
G1 X36.777 Y17.85 E1.43568
G1 X39.397 Y18.388 E1.6225
G1 X44.823 Y19.27 E2.00646
G1 X50.281 Y19.841 E2.38976
G1 X55.728 Y20.102 E2.77065
G1 X61.217 Y20.054 E3.15405
G1 X66.677 Y19.697 E3.53622
G1 X72.098 Y19.033 E3.91769
G1 X87.463 Y16.174 E5.0093
G1 X87.658 Y16.144 E5.02308
G1 X89.067 Y15.971 E5.12223
G1 X89.248 Y15.954 E5.13493
G1 X97.579 Y15.408 E5.71807
G1 X97.934 Y15.404 E5.74286
G1 X106.287 Y15.785 E6.3269
G1 X106.474 Y15.799 E6.33999
G1 X107.945 Y15.953 E6.4433
G1 X108.127 Y15.978 E6.45613
G1 X116.345 Y17.319 E7.03772
G1 X116.696 Y17.396 E7.06282
G1 X125.442 Y19.855 E7.69738
G1 X125.786 Y19.974 E7.7228
G1 X134.197 Y23.411 E8.35744
G1 X134.525 Y23.567 E8.38281
G1 X142.469 Y27.92 E9.01551
G1 X142.777 Y28.112 E9.04086
G1 X150.218 Y33.366 E9.67708
G1 X150.5 Y33.59 E9.70224
G1 X156.753 Y39.156 E10.28695
G1 X156.887 Y39.282 E10.29979
G1 X157.881 Y40.275 E10.39793
G1 X158.009 Y40.411 E10.41097
G1 X163.579 Y46.668 E10.99608
G1 X163.8 Y46.946 E11.02089
G1 X168.628 Y53.762 E11.60429
G1 X168.729 Y53.913 E11.61698
G1 X169.495 Y55.136 E11.71777
G1 X169.591 Y55.301 E11.73111
G1 X173.609 Y62.655 E12.31642
G1 X173.763 Y62.979 E12.34148
G1 X177.195 Y71.381 E12.9754
G1 X177.313 Y71.724 E13.00073
G1 X179.765 Y80.437 E13.63294
G1 X179.843 Y80.788 E13.65806
G1 X181.198 Y89.076 E14.24463
G1 X181.223 Y89.262 E14.25774
G1 X181.373 Y90.71 E14.35942
G1 X181.387 Y90.894 E14.3723
G1 X181.768 Y99.217 E14.95424
G1 X181.764 Y99.572 E14.97904
G1 X181.218 Y107.917 E15.56315
G1 X181.201 Y108.101 E15.57606
G1 X181.023 Y109.539 E15.67727
G1 X180.994 Y109.727 E15.69055
G1 X179.307 Y118.858 E16.33911
G1 X178.395 Y124.295 E16.72417
G1 X177.796 Y129.749 E17.1074
G1 X177.506 Y135.196 E17.4884
G1 X177.526 Y140.685 E17.87179
G1 X177.854 Y146.145 E18.25383
G1 X178.492 Y151.583 E18.63626
G1 X179.436 Y156.985 E19.01929
G1 X180.015 Y159.623 E19.20793
G1 X180.678 Y162.29 E19.39988
G1 X182.229 Y167.56 E19.78358
G1 X184.065 Y172.703 E20.165
G1 X186.941 Y179.363 E20.6717
G1 X187.104 Y179.842 E20.70704
G1 X187.19 Y180.34 E20.74234
G1 X187.196 Y180.846 E20.77768
G1 X187.122 Y181.346 E20.81299
G1 X186.971 Y181.828 E20.84827
G1 X186.746 Y182.281 E20.88359
G1 X186.452 Y182.692 E20.91889
G1 X186.272 Y182.888 E20.93748
G1 X182.915 Y186.264 E21.27001
G1 X182.531 Y186.594 E21.30538
G1 X182.101 Y186.858 E21.34062
G1 X181.634 Y187.052 E21.37594
G1 X181.142 Y187.169 E21.41126
G1 X180.638 Y187.208 E21.44657
G1 X180.134 Y187.167 E21.48189
G1 X179.643 Y187.047 E21.51719
G1 X179.31 Y186.916 E21.54219
G1 X176.8 Y185.763 E21.73511
G1 X171.748 Y183.693 E22.11645
G1 X166.529 Y181.897 E22.50196
G1 X161.288 Y180.416 E22.88236
G1 X155.882 Y179.213 E23.26918
G1 X153.245 Y178.745 E23.45624
G1 X147.808 Y178.013 E23.83942
G1 X142.353 Y177.59 E24.22158
G1 X136.883 Y177.477 E24.60372
G1 X131.397 Y177.674 E24.98714
G1 X125.968 Y178.176 E25.36796
G1 X120.489 Y178.999 E25.75494
G1 X109.022 Y181.112 E26.56935
G1 X108.659 Y181.158 E26.59491
G1 X100.298 Y181.727 E27.18024
G1 X100.107 Y181.734 E27.19359
G1 X98.646 Y181.746 E27.29564
G1 X98.466 Y181.742 E27.30822
G1 X90.154 Y181.341 E27.88945
G1 X89.801 Y181.305 E27.91424
G1 X81.506 Y179.973 E28.50103
G1 X81.32 Y179.937 E28.51427
G1 X79.946 Y179.632 E28.61257
G1 X79.769 Y179.587 E28.62533
G1 X71.73 Y177.316 E29.2088
G1 X71.39 Y177.199 E29.23391
G1 X62.973 Y173.761 E29.86896
G1 X62.645 Y173.605 E29.89433
G1 X54.69 Y169.245 E30.52794
G1 X54.385 Y169.055 E30.55303
G1 X47.525 Y164.223 E31.13911
G1 X47.374 Y164.109 E31.15233
G1 X46.256 Y163.218 E31.25218
G1 X46.116 Y163.101 E31.26492
G1 X39.899 Y157.539 E31.84757
G1 X39.645 Y157.285 E31.87266
G1 X33.586 Y150.495 E32.50828
G1 X33.36 Y150.21 E32.53369
G1 X28.125 Y142.799 E33.16744
G1 X27.933 Y142.491 E33.19279
G1 X23.568 Y134.527 E33.82712
G1 X23.412 Y134.199 E33.85249
G1 X19.973 Y125.78 E34.48769
G1 X19.854 Y125.436 E34.51311
G1 X17.399 Y116.703 E35.14672
G1 X17.322 Y116.353 E35.17175
G1 X15.975 Y108.106 E35.75541
G1 X15.95 Y107.923 E35.76831
G1 X15.799 Y106.481 E35.86958
G1 X15.785 Y106.294 E35.88268
G1 X15.403 Y97.955 E36.46574
G1 X15.407 Y97.6 E36.49053
G1 X15.953 Y89.255 E37.07465
G1 X15.97 Y89.069 E37.08769
G1 X16.15 Y87.621 E37.18961
G1 X16.179 Y87.438 E37.20255
G1 X17.694 Y79.185 E37.78862
G1 X17.711 Y79.099 E37.79475
G1 X18.291 Y76.364 E37.99002
G1 X19.201 Y70.936 E38.37444
G1 X19.799 Y65.496 E38.75669
G1 X20.089 Y60.016 E39.13999
G1 X20.068 Y54.546 E39.52205
G1 X19.738 Y49.084 E39.90424
G1 X19.101 Y43.648 E40.28653
G1 X18.154 Y38.241 E40.66993
G1 X17.571 Y35.581 E40.86013
G1 X16.918 Y32.955 E41.04914
G1 X15.364 Y27.68 E41.43323
G1 X12.792 Y20.674 E41.95451
G1 X12.656 Y20.187 E41.98982
G1 X12.598 Y19.684 E42.02519
G1 X12.62 Y19.179 E42.0605
G1 X12.721 Y18.684 E42.09578
G1 X12.899 Y18.211 E42.13108
G1 X13.15 Y17.772 E42.1664
G1 X13.528 Y17.314 E42.20788
G1 X17.289 Y13.535 E42.58027
G0 F3927.3 X19.622 Y16.112
;TYPE:SUPPORT
G1 F1800 X19.622 Y16.111 E42.58034
G1 X26.351 Y22.844 E43.24521
G1 X26.685 Y22.844 E43.26854
G1 X22.842 Y26.687 E43.64814
G1 X22.843 Y26.352 E43.67154
G1 X16.202 Y19.715 E44.32733
G1 X16.203 Y19.715 E44.3274
G1 X16.057 Y19.561 E44.34222
G1 X18.905 Y16.714 E44.62349
G1 X19.561 Y16.056 E44.68838
G1 X19.622 Y16.112 E44.69417
G1 F1500 E38.19417
G0 F3927.3 X18.662 Y17.184
G1 F1500 E44.69417
G1 F1800 X18.662 Y21.946 E45.02678
G1 F1500 E38.52678
G0 F3927.3 X18.043 Y21.328
G1 F1500 E45.02678
G1 F1800 X24.611 Y21.328 E45.48553
G1 F1500 E38.98553
G0 F3927.3 X23.994 Y20.712
G1 F1500 E45.48553
G1 F1800 X23.994 Y25.308 E45.80654
G1 F1500 E39.30654
G0 F3927.3 X25.308 Y23.994
G1 F1500 E45.80654
G1 F1800 X20.709 Y23.994 E46.12776
G1 F1500 E39.62776
G0 F3927.3 X21.328 Y24.612
G1 F1500 E46.12776
G1 F1800 X21.328 Y18.045 E46.58644
G1 F1500 E40.08644
G0 F3927.3 X21.946 Y18.662
G1 F1500 E46.58644
G1 F1800 X17.184 Y18.662 E46.91905
G1 F1500 E40.41905
G0 F3927.3 X17.925 Y97.793
G0 X18.355 Y106.945
G0 X19.816 Y115.969
G0 X22.301 Y124.8
G0 X25.763 Y133.28
G0 X30.165 Y141.311
G0 X35.447 Y148.789
G0 X41.546 Y155.626
G0 X48.382 Y161.725
G0 X55.861 Y167.007
G0 X63.891 Y171.409
G0 X72.372 Y174.871
G0 X81.198 Y177.355
G0 X90.226 Y178.816
G0 X99.379 Y179.246
G0 X166.821 Y178.353
G0 X170.678 Y174.512
G0 X170.49 Y174.326
G1 F1500 E46.91905
G1 F1800 X174.326 Y170.49 E47.29796
G1 X174.326 Y170.821 E47.32108
G1 X180.386 Y176.875 E47.91938
G1 X181.102 Y177.591 E47.9901
G1 X181.162 Y177.985 E48.01794
G1 X183.738 Y180.556 E48.27214
G1 X183.77 Y180.612 E48.27665
G1 X182.686 Y181.696 E48.38372
G1 X181.049 Y183.337 E48.54562
G1 X180.615 Y183.771 E48.58849
G1 X180.558 Y183.738 E48.59309
G1 X177.991 Y181.17 E48.8467
G1 X177.595 Y181.101 E48.87478
G1 X170.821 Y174.326 E49.54395
G1 X170.49 Y174.326 E49.56706
G1 F1500 E43.06706
G0 F3927.3 X171.753 Y173.29
G1 F1500 E49.56706
G1 F1800 X176.571 Y173.29 E49.90358
G1 F1500 E43.40358
G0 F3927.3 X175.956 Y172.676
G1 F1500 E49.90358
G1 F1800 X175.956 Y179.234 E50.36164
G1 F1500 E43.86164
G0 F3927.3 X175.343 Y178.622
G1 F1500 E50.36164
G1 F1800 X181.574 Y178.622 E50.79685
G0 F3927.3 X181.288 Y178.338
G1 F1800 X181.288 Y182.87 E51.11339
G1 F1500 E44.61339
G0 F3927.3 X182.866 Y181.288
G1 F1500 E51.11339
G1 F1800 X178.335 Y181.288 E51.42986
G0 F3927.3 X178.622 Y181.575
G1 F1800 X178.622 Y175.341 E51.86529
G1 F1500 E45.36529
G0 F3927.3 X179.239 Y175.956
G1 F1500 E51.86529
G1 F1800 X172.677 Y175.956 E52.32362
G1 F1500 E45.82362
G0 F3927.3 X173.29 Y176.568
G1 F1500 E52.32362
G1 F1800 X173.29 Y171.753 E52.65993
G1 F1500 E46.15993
G0 F3927.3 X172.442 Y170.903
G0 X176.37 Y166.891
G0 X176.439 Y166.962
;TYPE:WALL-INNER
G1 F1500 E52.65993
G1 F1800 X166.962 Y176.439 E53.59604
G1 X166.821 Y176.58 E53.60997
G1 X166.68 Y176.439 E53.61896
G1 X149.661 Y159.419 E55.30011
G1 X141.958 Y165.092 E55.9683
G1 X134.143 Y169.577 E56.59765
G1 X125.859 Y173.153 E57.22786
G1 X117.242 Y175.762 E57.85671
G1 X108.36 Y177.38 E58.4873
G1 X99.372 Y177.979 E59.11647
G1 X90.355 Y177.556 E59.74696
G1 X81.468 Y176.117 E60.37577
G1 X72.78 Y173.674 E61.00613
G1 X64.439 Y170.267 E61.63544
G1 X56.534 Y165.934 E62.26508
G1 X49.164 Y160.728 E62.89533
G1 X42.442 Y154.73 E63.52457
G1 X36.444 Y148.007 E64.15386
G1 X31.238 Y140.638 E64.78405
G1 X26.905 Y132.732 E65.41375
G1 X23.498 Y124.392 E66.043
G1 X21.054 Y115.699 E66.67371
G1 X19.615 Y106.816 E67.30224
G1 X19.192 Y97.8 E67.93267
G1 X19.791 Y88.812 E68.56184
G1 X21.41 Y79.929 E69.19251
G1 X24.018 Y71.313 E69.82127
G1 X27.594 Y63.029 E70.45148
G1 X32.079 Y55.214 E71.08083
G1 X37.753 Y47.51 E71.74912
G1 X20.733 Y30.491 E73.43027
G1 X20.592 Y30.35 E73.44419
G1 X20.733 Y30.209 E73.45319
G1 X30.209 Y20.733 E74.3892
G1 X30.35 Y20.592 E74.40313
G1 X30.491 Y20.733 E74.41212
G1 X47.51 Y37.753 E76.09327
G1 X55.214 Y32.079 E76.76155
G1 X63.029 Y27.594 E77.39091
G1 X71.313 Y24.018 E78.02112
G1 X79.929 Y21.41 E78.64988
G1 X88.812 Y19.791 E79.28055
G1 X97.8 Y19.192 E79.90972
G1 X106.816 Y19.615 E80.54014
G1 X115.703 Y21.055 E81.16896
G1 X124.392 Y23.498 E81.79939
G1 X132.732 Y26.905 E82.42864
G1 X140.638 Y31.238 E83.05834
G1 X148.007 Y36.444 E83.68853
G1 X154.73 Y42.442 E84.31782
G1 X160.728 Y49.164 E84.94706
G1 X165.934 Y56.534 E85.5773
G1 X170.267 Y64.439 E86.20694
G1 X173.674 Y72.78 E86.83626
G1 X176.118 Y81.472 E87.4669
G1 X177.556 Y90.355 E88.09543
G1 X177.979 Y99.371 E88.72585
G1 X177.38 Y108.36 E89.35509
G1 X175.762 Y117.242 E89.98568
G1 X173.153 Y125.859 E90.61453
G1 X169.577 Y134.143 E91.24474
G1 X165.092 Y141.958 E91.87409
G1 X159.419 Y149.661 E92.54228
G1 X176.439 Y166.68 E94.22342
G1 X176.58 Y166.821 E94.23735
G1 X176.439 Y166.962 E94.24635
G0 F3927.3 X176.37 Y166.891
G0 X156.736 Y147.07
G0 X156.729 Y146.971
G1 F1800 X156.866 Y146.782 E94.26265
G1 X162.333 Y139.228 E94.91395
G1 X166.662 Y131.464 E95.53484
G1 X170.051 Y123.246 E96.15572
G1 X172.451 Y114.687 E96.7766
G1 X173.831 Y105.905 E97.39751
G1 X174.17 Y97.024 E98.01827
G1 X173.464 Y88.162 E98.63921
G1 X171.724 Y79.445 E99.26007
G1 X168.971 Y70.993 E99.88094
G1 X165.245 Y62.921 E100.5019
G1 X160.598 Y55.343 E101.12279
G1 X155.094 Y48.364 E101.7436
G1 X148.808 Y42.078 E102.36452
G1 X141.828 Y36.573 E102.98542
G1 X134.25 Y31.926 E103.60631
G1 X126.179 Y28.2 E104.22721
G1 X117.726 Y25.448 E104.84813
G1 X109.009 Y23.708 E105.46899
G1 X100.148 Y23.001 E106.08986
G1 X91.266 Y23.341 E106.71069
G1 X82.484 Y24.719 E107.33159
G1 X73.925 Y27.121 E107.9525
G1 X65.708 Y30.509 E108.5733
G1 X57.944 Y34.839 E109.19422
G1 X50.389 Y40.306 E109.84557
G1 X50.2 Y40.443 E109.86188
G1 X50.365 Y40.608 E109.87197
G1 X94.503 Y84.744 E114.23171
G1 X97.137 Y84.261 E114.41875
G1 X99.457 Y84.215 E114.58083
G1 X101.748 Y84.54 E114.74245
G1 X103.96 Y85.229 E114.90427
G1 X106.033 Y86.265 E115.06614
G1 X107.917 Y87.622 E115.22831
G1 X109.55 Y89.255 E115.38961
G1 X110.907 Y91.138 E115.55173
G1 X111.943 Y93.212 E115.71365
G1 X112.632 Y95.424 E115.87548
G1 X112.957 Y97.716 E116.03716
G1 X112.91 Y100.034 E116.1991
G1 X112.427 Y102.669 E116.38621
G1 X156.564 Y146.806 E120.74596
G1 X156.729 Y146.971 E120.75605
G0 F3927.3 X156.736 Y147.07
G0 X147.069 Y156.735
G0 X146.97 Y156.728
G1 F1800 X146.805 Y156.563 E120.77235
G1 X102.666 Y112.423 E125.13234
G1 X100.47 Y112.861 E125.28874
G1 X98.586 Y112.983 E125.42061
G1 X96.701 Y112.861 E125.55254
G1 X94.506 Y112.423 E125.70888
G1 X50.366 Y156.563 E130.06892
G1 X50.201 Y156.728 E130.08522
G1 X50.39 Y156.865 E130.09531
G1 X57.724 Y162.192 E130.72843
G1 X65.239 Y166.435 E131.33121
G1 X73.188 Y169.792 E131.9339
G1 X81.468 Y172.222 E132.53662
G1 X89.971 Y173.694 E133.13936
G1 X98.586 Y174.186 E133.74206
G1 X107.201 Y173.694 E134.34477
G1 X115.703 Y172.222 E134.94744
G1 X123.984 Y169.792 E135.55022
G1 X131.933 Y166.435 E136.15291
G1 X139.447 Y162.192 E136.75563
G1 X146.781 Y156.865 E137.38875
G1 X146.97 Y156.728 E137.39884
G0 F3927.3 X147.069 Y156.735
G0 X100.178 Y108.177
G0 X100.108 Y108.107
G1 F1800 X100.344 Y107.828 E137.42436
G1 X100.529 Y107.512 E137.44994
G1 X100.656 Y107.171 E137.47536
G1 X100.726 Y106.812 E137.5009
G1 X100.733 Y106.447 E137.5264
G1 X100.679 Y106.089 E137.55169
G1 X100.566 Y105.743 E137.57711
G1 X100.396 Y105.419 E137.60267
G1 X100.171 Y105.129 E137.62831
G1 X99.902 Y104.882 E137.65381
G1 X99.596 Y104.685 E137.67923
G1 X99.261 Y104.541 E137.7047
G1 X98.904 Y104.456 E137.73033
G1 X98.54 Y104.434 E137.7558
G1 X98.178 Y104.472 E137.78123
G1 X97.826 Y104.571 E137.80677
G1 X97.496 Y104.729 E137.83232
G1 X97.199 Y104.94 E137.85777
G1 X96.941 Y105.198 E137.88325
G1 X96.73 Y105.495 E137.9087
G1 X96.572 Y105.825 E137.93425
G1 X96.473 Y106.177 E137.95979
G1 X96.435 Y106.539 E137.98522
G1 X96.457 Y106.903 E138.01069
G1 X96.542 Y107.26 E138.03632
G1 X96.686 Y107.595 E138.06179
G1 X96.883 Y107.901 E138.08721
G1 X97.13 Y108.17 E138.11272
G1 X97.419 Y108.394 E138.13825
G1 X97.742 Y108.566 E138.16381
G1 X98.09 Y108.679 E138.18937
G1 X98.448 Y108.733 E138.21466
G1 X98.813 Y108.726 E138.24016
G1 X99.174 Y108.656 E138.26584
G1 X99.515 Y108.527 E138.29131
G1 X99.829 Y108.342 E138.31676
G1 X100.108 Y108.107 E138.34224
G0 F3927.3 X100.178 Y108.177
G0 X100.565 Y107.529
G0 X100.765 Y106.816
G0 X100.717 Y106.08
G0 X99.478 Y103.202
G0 X99.46 Y103.104
G1 F1800 X100.212 Y102.892 E138.39681
G1 X100.915 Y102.554 E138.45129
G1 X101.543 Y102.11 E138.50501
G1 X101.855 Y101.82 E138.53476
G1 X102.111 Y101.542 E138.56116
G1 X102.554 Y100.915 E138.61478
G1 X102.892 Y100.212 E138.66926
G1 X103.104 Y99.46 E138.72384
G1 X103.186 Y98.683 E138.77841
G1 X103.137 Y97.905 E138.83286
G1 X102.956 Y97.145 E138.88742
G1 X102.65 Y96.428 E138.94187
G1 X102.227 Y95.772 E138.99639
G1 X101.699 Y95.196 E139.05097
G1 X101.081 Y94.719 E139.1055
G1 X100.391 Y94.353 E139.16005
G1 X99.652 Y94.109 E139.21441
G1 X98.88 Y93.993 E139.26893
G1 X98.099 Y94.01 E139.3235
G1 X97.332 Y94.159 E139.37807
G1 X96.602 Y94.434 E139.43256
G1 X95.929 Y94.829 E139.48706
G1 X95.332 Y95.332 E139.54159
G1 X94.829 Y95.929 E139.59611
G1 X94.434 Y96.602 E139.65062
G1 X94.159 Y97.332 E139.7051
G1 X94.01 Y98.099 E139.75968
G1 X93.993 Y98.88 E139.81424
G1 X94.109 Y99.652 E139.86877
G1 X94.353 Y100.391 E139.92312
G1 X94.719 Y101.081 E139.97768
G1 X95.196 Y101.699 E140.03221
G1 X95.772 Y102.227 E140.08678
G1 X96.428 Y102.65 E140.1413
G1 X97.145 Y102.956 E140.19575
G1 X97.905 Y103.137 E140.25032
G1 X98.683 Y103.186 E140.30477
G1 X99.46 Y103.104 E140.35934
G0 F3927.3 X99.478 Y103.202
G0 X100.935 Y102.588
G0 X106.097 Y99.642
G0 X106.185 Y99.596
G1 F1800 X106.382 Y99.902 E140.38476
G1 X106.629 Y100.171 E140.41027
G1 X106.919 Y100.396 E140.4359
G1 X107.243 Y100.566 E140.46146
G1 X107.589 Y100.679 E140.48688
G1 X107.947 Y100.733 E140.51217
G1 X108.312 Y100.726 E140.53767
G1 X108.671 Y100.656 E140.56322
G1 X109.012 Y100.529 E140.58863
G1 X109.328 Y100.344 E140.61421
G1 X109.607 Y100.108 E140.63973
